!!!!SEGMENT: pl-wtm--r-2012--001_smietanski-emil-wladyslaw--saltarella-op-5.krn
!!!cenid: 18xx:1995
!!!COM: Śmietański, Emil Władysław
!!!COM-rismid: pe50041781
!!!CDT: 1845-1886
!!!CNT: Polish
!!!OTL: Saltarella op. 5
!!!PDT: 1866
!!!AGN: Secular
!!!SMS-siglum: PL-Wtm
!!!SMS-shelfmark: R 2012
!!!SMS-shelfwork: 001 W
!!!SMS-variant:
!!!SMS-altvar:
!!!NIFC-rismid: 1001112208
!!!URL-scan: http://repozytorium.nifc.pl/skany/pl-wtm-nut--r2012
!!!ONB-nifc: UWAGA: w zbiorze 1. Saltarella i 2. Polonaise
!!!AIN: 2 piano
!!!key:
**kern	**kern	**dynam
*part2	*part1	*part1
*staff2	*staff1	*
*Ipiano	*Ipiano	*
*I"Piano	*I"Piano	*
*I'P-no	*I'P-no	*
*clefF4	*clefG2	*
*k[b-e-a-d-g-]	*k[b-e-a-d-g-]	*
*D-:	*D-:	*
*M2/4	*M2/4	*
=1	=1	=1
!	!LO:TX:a:i:t=Presto.	!
!	!LO:TX:a:i:t=Saltarella. (Scherzino).	!
8fL 8B-'\	8dd-L 8b-'\	.
8fJ 8F'\	8aa-J 8a-'\	.
!	!	!LO:DY:rj
8cL 8A-'\	8ee-L 8a-'\	p
8d-J 8D-'\	8ffJ 8f'\	.
!	!LO:TX:b:i:t=staccato	!
=2	=2	=2
8G-L 8E-'\	8b-L 8g-'\	.
8e-J 8E-'\	8ccJ 8g-'\	.
(8cL 8AA-^^\	(8ee-L 8g-'^^\	.
16A-Jk 16D-\)	16dd-Jk 16f\)	.
16r	16r	.
=3	=3	=3
8A-L 8D-'\	8dd-L 8f'\	.
8d-J 8BB-'\	8ffJ 8a-'\	.
8e-L 8C'\	8ccL 8a-'\	.
8d-J 8BB-'\	8dd-J 8f'\	.
=4	=4	=4
(8d-L 8E-^^\	(8ccL 8gn'^^\	<
16cJk 16AA-'\)	16a-Jk 16e-'\)	.
16r	16r	.
8EE-|^^</L	4ryy	.
8AAA-|^^</J	.	[[
=5	=5	=5
8cL 8AA-'\	8a-L 8e-'\	.
8d-J 8B--^^\	8ee-J 8gn'^^\	.
!	!	!LO:DY:rj
8cL 8AA-'\	8a-L 8e-'\	f
8d-J 8B--^^\	8ee-J 8g^^\	.
=6	=6	=6
!	!LO:TUP:a:problem=klamra łukowa	!
8d-L 8B--|\	24ee-LL 24gn\	.
.	24ff-X\	.
.	24ee-\JJ	.
!	!LO:TUP:a:problem=klamra łukowa	!
8d-J 8B--|\	24ee-LL 24g\	.
.	24ff-\	.
.	24ee-\JJ	.
8c 8A-|\	8aa-'\L	.
8r	8a-|\J	.
!!LO:LB:g=original
=7	=7	=7
*clefG2	*	*
8ccL 8A-'\	8aa-L 8ee-'\	p
8dd-J 8b--^^\	8eee-J 8ggn^^\	.
8ccL 8A-'\	8aa-L 8ee-|\	.
8dd-J 8b--^^\	8eee-J 8gg^^\	.
=8	=8	=8
!	!LO:TUP:a:problem=klamra łukowa	!
8dd-L 8b--|\	24eee-LL 24ggn\	.
.	24fff\	.
.	24eee-\JJ	.
!	!LO:TUP:a:problem=klamra łukowa	!
8dd-J 8b--|\	24eee-LL 24gg\	.
.	24fff\	.
.	24eee-\JJ	.
8cc 8a-'\	8aaa-'\L	.
8r	8aa-'\J	.
=9	=9	=9
8ffL 8b-'\	8ddd-L 8bb-'\	p
8ffJ 8f'\	8aaa-J 8aa-'\	.
8ccL 8a-'\	8eee-L 8aa-'\	.
8dd-J 8d-'\	8fffJ 8ff'\	.
*clefF4	*	*
=10	=10	=10
8fL 8B-|\	8dd-L 8b-|\	f
8fJ 8F|\	8aa-J 8a-'\	.
8cL 8A-|\	8ee-L 8a-\\	.
8d-J 8D-|\	8ffJ 8f'\	.
=11	=11	=11
8e-L 8C'\	8ccL 8a-'\	.
8d-J 8BB-'\	8dd-J 8f'\	.
(8d-L 8E-^^\	(8ccL 8gn^^\	.
16cJk 16AA-|\)	16a-Jk 16e-|\)	.
16r	16r	.
=12	=12	=12
!	!	!LO:DY:t=p
8a-L 8F'\	8ffL 8dd-|\	p
8g-J 8E-'\	8gg-J 8b-|\	.
(8g-L 8A-^^\	(8ffL 8cc^^\	.
16fJk 16D-\)	16dd-Jk 16a-'\)	.
16r	16r	.
!!LO:LB:g=original
=13	=13	=13
!	!	!LO:DY:rj
8fL 8D-'\	8dd-L 8a-'\	f
8g-J 8e--^^\	8aa-J 8cc^^\	.
8fL 8D-'\	8dd-L 8a-'\	.
8g-J 8e--^^\	8aa-J 8cc^^\	.
=14	=14	=14
!	!LO:TUP:a:problem=klamra łukowa	!
8g-L 8e--|\	24aa-LL 24cc\	.
.	24bb--\	.
.	24aa-\JJ	.
!	!LO:TUP:a:problem=klamra łukowa	!
8g-J 8e--|\	24aa-LL 24cc\	.
.	24bb--\	.
.	24aa-\JJ	.
8f 8d-|\	8ddd-|\L	.
8r	8dd-|\J	.
*clefG2	*	*
=15	=15	=15
!LO:TX:t=P:problem=artykulacja poprawiana	!	!
8anL 8F'/	8ffL 8cc|\	p
8b-J 8g-^^</	8cccJ 8een^^\	.
8aL 8F'/	8ffL 8cc'\	.
!	!	!LO:HP:t=dimin&colon;
8b-J 8g-^^</	8cccJ 8ee^^\	>
=16	=16	=16
!	!LO:TUP:a:problem=klamra łukowa	!
8b-L 8g-/|	24cccLL 24een\	.
.	24ddd-\	.
.	24ccc\JJ	.
!	!LO:TUP:a:problem=klamra łukowa	!
8b-J 8g-/|	24cccLL 24ee\	.
.	24ddd-\	.
.	24ccc\JJ	.
8an 8f'/	8fff|\L	.
8r	8ff|\J	.
=17	=17	=17
8ffL 8b-\|	8ddd-L 8bb-|\	pp
8ffJ 8f\|	8aaa-J 8aa-|\	.
8ccL 8a-\|	8eee-L 8aa-|\	.
8dd-J 8d-\|	8fffJ 8ff|\	.
=18	=18	=18
8g-L 8e-\|	8bb-L 8gg-|\	.
8ee-J 8e-\|	8cccJ 8gg-|\	.
(8ccL 8A-^^\	(8eee-L 8gg-^^\	.
16a-Jk 16d-\)	16ddd-Jk 16ff\)	.
16r	16r	.
!!LO:LB:g=original
*clefF4	*	*
=19	=19	=19
8d-L 8G-\|	8gg-L 8b-|\	.
8g-J 8E-\|	8bb-J 8dd-|\	.
8a-L 8F\|	8ffL 8dd-|\	.
8g-J 8E-\|	8gg-J 8b-|\	.
=20	=20	=20
(8g-L 8A-^^\	(8ffL 8cc^^\	.
16fJk 16D-\)	16dd-Jk 16a-\)	.
16r	16r	.
!	!	!LO:DY:t=sempre p
8AA-'/L	4ryy	p
8DD-'/J	.	.
=21||	=21||	=21||
*k[b-e-a-d-]	*k[b-e-a-d-]	*
8AA-\L	(16ccLL 16a-\	.
.	16ee- 16g\	.
!LO:TUP:a:problem=klamra łukowa	!	!
24E-\L	16cc 16a-\	.
24A-\	.	.
.	16ee-JJ 16g\	.
24Bn\JJ	.	.
8c|\L	16ccLL 16a-\	.
.	16ee- 16g\	.
8E-'\J	16cc 16f#X\	.
!	!LO:TX:b:t=scherzando	!
.	16ee-JJ 16g\)	.
=22	=22	=22
8AA-\L	(16ccLL 16a-\	.
.	16ee- 16g\	.
!LO:TUP:a:problem=klamra łukowa	!	!
24E-\L	16cc 16a-\	.
24A-\	.	.
.	16ee-JJ 16g\	.
24Bn\JJ	.	.
8c'\L	16ccLL 16a-\	.
.	16ee- 16g\	.
8E-|\J	16cc 16f#X\	.
.	16ee-JJ 16g\)	.
=23	=23	=23
8AA-\L|	8ccL 8a-\|	.
*clefG2	*	*
!	!LO:TUP:a:problem=klamra łukowa	!
8cc\J|	24ee-\L	.
.	24ff\	.
.	24ee-\JJ	.
!LO:TX:t=P:problem=mixed beam	!	!
8bn\L|	8ddn|\L	.
8F/J|	8aa-|\J	.
*clefF4	*	*
=24	=24	=24
8b-X\L|	8ggL 8dd-X|\	.
8E-\J|	8eee-|\J	.
!LO:TX:t=P:problem=mixed beam	!	!
8a-\L|	8aa-L 8cc|\	.
8AA-'/J	8aaa-|\J	.
!!LO:LB:g=original
=25	=25	=25
8C\L	(16ee-LL 16cc\	.
.	16gg 16bn\	.
!LO:TUP:a:problem=klamra łukowa	!	!
24G\L	16ee- 16cc\	.
24c\	.	.
.	16ggJJ 16b\	.
24dn\JJ	.	.
8e-\L|	16ee-LL 16cc\	.
.	16gg 16b\	.
8G\J|	16ee- 16b-X\	.
.	16ggJJ 16bn\)	.
=26	=26	=26
8C|\L	(16ggLL 16ee-\	.
.	16gg 16bn\	.
!LO:TUP:a:problem=klamra łukowa	!	!
24G\L	16gg 16ee-\	.
24c\	.	.
.	16ggJJ 16b\	.
24dn\JJ	.	.
8e-|\L	16ggLL 16ee-\	.
.	16gg 16b\	.
8G|\J	16ee- 16b-X\	.
.	16ggJJ 16bn\)	.
=27	=27	=27
8C\L|	8ee-L 8cc|\	<
*clefG2	*	*
!	!LO:TUP:a:problem=klamra łukowa	!
8ee-\J|	24gg\L	.
.	24aa-\	.
.	24gg\JJ	.
!LO:TX:t=P:problem=mixed beam	!	!
8ddn\L|	8ff#X|\L	.
8A-/J|	8ccc\J|	.
=28	=28	=28
!LO:TX:t=P:problem=mixed beam	!	!
8ddn\L|	8bbnL 8ffn|\	.
8G/J|	8ggg|\J	.
8cc\L|	8cccL 8ee-|\	.
*clefF4	*	*
*	*8va	*
8C\J|	8cccc|\J	[[
*	*X8va	*
=29	=29	=29
(8E-\L	(16ggLL 16ee-\	f
.	16bb- 16ddn\	.
!LO:TUP:a	!	!
24B-\L	16gg 16ee-\	.
24e-\	.	.
.	16bb-JJ 16dd\	.
24f#X\JJ)	.	.
8g|\L	16ggLL 16ee-\	.
.	16bb- 16dd\	.
8B-'\J	16gg 16cc#X\	.
.	16bb-JJ 16dd\)	.
=30	=30	=30
!LO:TX:t=P:problem=mixed beam	!	!
8E-|\L	8ggL 8ee-|\	.
!	!LO:TUP:a:problem=klamra łukowa	!
8EE-/J|	24bb-\L	.
.	24ccc\	.
.	24bb-\JJ	.
8E-\L|	8eee-L 8gg|\	.
*	*8va	*
8e-\J|	8eeee-|\J	.
*	*X8va	*
!!LO:LB:g=original
=31	=31	=31
8E-'\L	(16ggLL 16ee-\	>
.	16bb- 16ddn\	.
!LO:TUP:a:problem=klamra łukowa	!	!
24B-\L	16gg 16ee-\	.
24e-\	.	.
.	16bb-JJ 16dd\	.
24f#X\JJ	.	.
8g'\L	16ggLL 16ee-\	.
.	16bb- 16dd\	.
8B-'\J	16gg 16cc#\	.
.	16bb-JJ 16dd\	.
=32	=32	=32
!LO:TX:t=P:problem=mixed beam	!	!
8E-'\L	16ggLL 16ee-\	.
.	16bb- 16ddn\	.
8EE-/J|	16ee- 16dd-X\	.
.	16ffJJ 16cc\	.
8BB-\L|	16dd-LL 16b-\	.
.	16ff 16a-\	.
8E-\J|	16b- 16g\	]
.	16dd-JJ 16e-\)	.
=33	=33	=33
8AA-\L	(16ccLL 16a-\	.
.	16ee- 16g\	.
!LO:TUP:a:problem=klamra łukowa	!	!
24E-\L	16cc 16a-\	.
24A-\	.	.
.	16ee-JJ 16g\	.
24Bn\JJ	.	.
8c\L|	16ccLL 16a-\	.
.	16ee- 16g\	.
8E-\J|	16cc 16f#X\	.
.	16ee-JJ 16g\	.
=34	=34	=34
8AA-\L	16ccLL 16a-\	.
.	16ee- 16g\	.
!LO:TUP:a:problem=klamra łukowa	!	!
24E-\L	16cc 16a-\	.
24A-\	.	.
.	16ee-JJ 16g\	.
24Bn\JJ	.	.
8c'\L	16ccLL 16a-\	.
.	16ee- 16g\	.
8E-'\J	16cc 16f#X\	.
.	16ee-JJ 16g\	.
=35	=35	=35
8AA-\L|	8ccL 8a-\|)	.
*clefG2	*	*
!	!LO:TUP:a:problem=klamra łukowa	!
8cc\J|	24ee-\L	.
.	24ff\	.
.	24ee-\JJ	.
!LO:TX:t=P:problem=mixed beam	!	!
8bn\L|	8ddn'\L	.
8F/J|	8aa-|\J	.
=36	=36	=36
!LO:TX:t=P:problem=mixed beam	!	!
8b-X\L|	8ggL 8dd-X|\	.
8E-/J|	8eee-|\J	.
*clefF4	*	*
8a-\L|	8aa-L 8cc|\	.
8AA-/J|	8aaa-|\J	.
!!LO:PB:g=original
=37	=37	=37
8D-\L	16ffLL 16dd-\	.
.	16aa- 16cc\	.
!LO:TUP:a:problem=klamra łukowa	!	!
24A-\L	16ff 16dd-\	.
24d-\	.	.
.	16aa-JJ 16cc\	.
24en\JJ	.	.
8f\L|	16ffLL 16dd-\	.
.	16aa- 16cc\	.
8A-\J|	16ff 16bn\	.
.	16aa-JJ 16cc\	.
=38	=38	=38
8D-\L	16ffLL 16dd-\	.
.	16aa- 16cc\	.
!LO:TUP:a:problem=klamra łukowa	!	!
24A-\L	16ff 16dd-\	.
24d-\	.	.
.	16aa-JJ 16cc\	.
24en\JJ	.	.
8f\L|	16ffLL 16dd-\	.
.	16aa- 16cc\	.
8A-\J|	16ff 16bn\	<
.	16aa-JJ 16cc\	.
=39	=39	=39
8D-\L|	8ffL 8dd-\	.
*clefG2	*	*
!	!LO:TUP:a:problem=klamra łukowa	!
8ff\J|	24aa-\L	.
.	24bb-\	.
.	24aa-\JJ	.
!LO:TX:t=P:problem=mixed beam	!	!
8een\L|	8gg'\L	.
8B-'/J	8ddd-|\J	.
=40	=40	=40
!LO:TX:t=P:problem=mixed beam	!LO:TX:b:i:t=sempre	!
8ee-X\L|	8cccL 8gg-X|\	.
8A-'/J	8aaa-|\J	.
8dd-\L|	8ddd-L 8ff|\	.
*clefF4	*	*
*	*8va	*
8D-\J|	8dddd-|\J	.
*	*X8va	*
=41	=41	=41
8F\L	16aa-LL 16ff\	.
.	16ccc 16een\	.
!LO:TUP:a:problem=klamra łukowa	!	!
24c\L	16aa- 16ff\	.
24f\	.	.
.	16cccJJ 16ee\	.
24g\JJ	.	.
8a-'\L	16aa-LL 16ff\	<
.	16ccc 16ee\	.
8c'\J	16aa- 16ee-X\	.
.	16cccJJ 16een\	.
=42	=42	=42
!LO:TX:t=P:problem=mixed beam	!	!
8F'\L	8aa-L 8ff\	.
!	!LO:TUP:a:problem=klamra łukowa	!
8FF'/J	24ccc\L	.
.	24ddd-\	.
.	24ccc\JJ	.
8F|\L	8fffL 8aa-|\	.
*	*8va	*
8f|\J	8ffff|\J	[[
*	*X8va	*
!!LO:LB:g=original
=43	=43	=43
!	!	!LO:DY:t=f.
8F\L	16aa-LL 16ff\	f
.	16ccc 16een\	.
!LO:TUP:a:problem=klamra łukowa	!	!
24c\L	16aa- 16ff\	.
24f\	.	.
.	16cccJJ 16ee\	.
24g\JJ	.	.
8a-\L|	16aa-LL 16ff\	.
.	16ccc 16ee\	.
8c\J|	16aa- 16ee-X\	.
.	16cccJJ 16een\	.
=44	=44	=44
8F\L|	8aa-L 8ff\	f
!	!LO:TUP:a:problem=klamra łukowa	!
8FF\J|	24ccc\L	.
.	24ddd-\	.
.	24ccc\JJ	.
8F\L|	8fffL 8aa-|\	.
*	*8va	*
8f\J|	8ffff|\J	.
*	*X8va	*
=45	=45	=45
8F\L|	8aanL 8ff\	ff
!	!LO:TUP:a:problem=klamra łukowa	!
8FF\J	24ccc\L	.
.	24ddd-\	.
.	24ccc\JJ	.
8F\L|	8fffL 8aan'\	.
*	*8va	*
8f\J|	8ffff\J	.
*	*X8va	*
=46	=46	=46
8F'\L	8aanL 8ff\	.
!	!LO:TUP:a:problem=klamra łukowa	!
8FF'\J	24ccc\L	.
.	24ddd-\	.
.	24ccc\JJ	.
8F'\L	8fffL 8aan'\	.
*	*8va	*
8f'\J	8ffff'\J	.
*	*X8va	*
*clefG2	*	*
=47	=47	=47
8ff'\L	8fff|\L	.
*	*8va	*
8aaan\J|	8ffff'\J	.
*	*X8va	*
8r	8ff'\L	.
8aan\|	8fff'\J	.
=48	=48	=48
!	!LO:TX:t=P:problem=mixed beam	!
8r	8f'/L	.
8an/|>	8ff'\J	.
!!LO:LB:g=original
!LO:CL:ed	!	!
*clefF4	*	*
8r	8F|/L	.
8An\|	8f|/J	.
=49||	=49||	=49||
*k[b-e-a-d-g-]	*k[b-e-a-d-g-]	*
!LO:TX:a:t=P:problem=zapisany tylko bemol ges	!LO:TX:a:t=P:problem=zapisany tylko bemol ges	!
8fL 8B-\	8dd-L 8b-|\	p
8fJ 8F\	8aa-J 8a-'\	.
!	!LO:TX:b:i:t=staccato	!
8cL 8A-\	8ee-L 8a-'\	.
8d-J 8D-\	8ffJ 8f'\	.
=50	=50	=50
8G-L 8E-\	8b-L 8g-'\	.
8e-J 8E-\	8ccJ 8g-'\	.
(8cL 8AA-^^\	(8ee-L 8g-^^\	.
16A-Jk 16D-'\)	16dd-Jk 16f'\)	.
16r	16r	.
=51	=51	=51
8A-L 8D-'\	8dd-L 8f'\	.
8d-J 8BB-'\	8ffJ 8a-'\	.
8e-L 8C'\	8ccL 8a-'\	.
8d-J 8BB-'\	8dd-J 8f'\	.
=52	=52	=52
(8d-L 8E-^^\	(8ccL 8gn^^\	.
16cJk 16AA-\)	16a-Jk 16e-\)	.
16r	16r	.
8EE-'^^</L	4ryy	.
8AAA-'^^</J	.	.
=53	=53	=53
!	!	!LO:DY:rj:t=f.
8cL 8AA-'\	8a-L 8e-|\	f
8d-J 8B--^^\	8ee-J 8gn^^\	.
8cL 8AA-'\	8a-L 8e-'\	.
8d-J 8B--^^\	8ee-J 8g^^\	.
=54	=54	=54
*	*Xtuplet	*
8d-L 8B--'\	24ee-LL 24gn\	.
.	24ff-X\	.
.	24ee-\JJ	.
8d-J 8B--'\	24ee-LL 24g\	.
.	24ff-\	.
.	24ee-\JJ	.
8c 8A-\	8aa-|\L	.
8r	8a-|\J	.
*clefG2	*	*
!!LO:LB:g=original
=55	=55	=55
8ccL 8A-'\	8aa- 8ee-'\	p
8dd-J 8b--^^\	8eee- 8ggn^^\	.
8ccL 8A-'\	8aa-L 8ee-'\	.
8dd-J 8b--^^\	8eee-J 8gg^^\	.
=56	=56	=56
8dd-L 8b--|\	24eee-LL 24ggn\	.
.	24fff\	.
!	!LO:TX:a:t=P:problem=bemol przed poprzednią nutą	!
.	24eee-X\JJ	.
8dd-J 8b--|\	24eee-LL 24gg\	.
.	24fff\	.
.	24eee-\JJ	.
8cc 8a-'\	8aaa-'\L	.
8r	8aa-'\J	.
=57	=57	=57
8ffL 8b-'\	8ddd-L 8bb-'\	p
8ffJ 8f'\	8aaa-J 8aa-'\	.
8ccL 8a-'\	8eee-L 8aa-'\	.
8dd-J 8d-'\	8fffJ 8ff'\	.
*clefF4	*	*
=58	=58	=58
8fL 8B-'\	8dd-L 8b-'\	f
8fJ 8F'\	8aa-J 8a-'\	.
8cL 8A-'\	8ee-L 8a-'\	.
8d-J 8D-'\	8ffJ 8f'\	.
=59	=59	=59
!LO:TX:t=P:problem=zapis poprawiony ołówkiem na 8A- 8F	!	!
8e-L 8C'\	8ccL 8a-'\	.
8d-J 8BB-'\	8dd-J 8f'\	.
(8d-L 8E-^^\	(8ccL 8gn^^\	.
16cJk 16AA-\)	16a-Jk 16e-\)	.
16r	16r	.
*clefG2	*	*
=60	=60	=60
8ee-L 8c|/	8cccL 8aa-'\	pp
8dd-J 8B-|/	8ddd-J 8ff'\	.
!!LO:LB:g=original
(>8dd-L 8e-^^/	(8cccL 8ggn^^\	.
16ccJk 16A-/)	16aa-Jk 16ee-\)	.
16r	16r	.
=61	=61	=61
8A-/L	16cccLL 16aa-\	p
.	16eee- 16ggn\	.
!LO:TUP:b:problem=klamra łukowa	!	!
24e-/L	16ccc 16aa-\	.
24a-/	.	.
.	16eee-JJ 16gg\	.
24bn/JJ	.	.
8cc'/L	16cccLL 16aa-\	.
.	16eee- 16gg\	.
8e-'/J	16ccc 16ff#X\	.
.	16eee-JJ 16gg\	.
=62	=62	=62
8A-/L	8cccL 8aa-'\	.
8dd-J 8d-/	8ddd-J 8ff'\	.
(8ee-L 8e-^^</	(8cccL 8ggn^^\	.
16ccJk 16A-/)	16aa-Jk 16ee-\)	.
16r	16r	.
=63	=63	=63
8A-/L	16cccLL 16aa-\	f
.	16eee- 16ggn\	.
*Xtuplet	*	*
24e-/L	16ccc 16aa-\	.
24a-/	.	.
.	16eee-JJ 16gg\	.
24bn/JJ	.	.
8cc'/L	16cccLL 16aa-\	.
.	16eee- 16gg\	.
8e-'/J	16ccc 16ff#X\	.
.	16eee-JJ 16gg\	.
*clefF4	*	*
=64	=64	=64
8A-'\L	8cccL 8aa-\	.
8AA-'\J	24eee-\L	.
.	24fff\	.
.	24eee-\JJ	.
8A-'\L	8aaa-L 8ccc\	.
*	*8va	*
8a-'\J	8aaaa-\J	.
*	*X8va	*
=65	=65	=65
8D-\L	16ffLL 16dd-\	p
.	16aa- 16cc\	.
24A-\L	16ff 16dd-\	.
24d-\	.	.
.	16aa-JJ 16cc\	.
24en\JJ	.	.
!!LO:LB:g=original
8f'\L	16ffLL 16dd-\	.
.	16aa- 16cc\	.
8A-'\J	16ff 16bn\	.
.	16aa-JJ 16cc\	.
=66	=66	=66
8D-'\L	8ffL 8dd-'\	.
8g-J 8G-'\	8gg-J 8b-'\	.
(8g-L 8A-^^\	(8ffL 8cc^^\	.
16fJk 16D-\)	16dd-Jk 16a-\)	.
16r	16r	.
=67	=67	=67
8D-\L	16ffLL 16dd-\	f
.	16aa- 16cc\	.
24A-\L	16ff 16dd-\	.
24d-\	.	.
.	16aa-JJ 16cc\	.
24en\JJ	.	.
8f'\L	16ffLL 16dd-\	.
.	16aa- 16cc\	.
8A-'\J	16ff 16bn\	.
.	16aa-JJ 16cc\	.
=68	=68	=68
8D-'/L	8ffL 8dd-\	.
8DD-'/J	24aa-\L	.
.	24bb-\	.
.	24aa-\JJ	.
8D-'\L	8ddd-L 8ff|\	.
*	*8va	*
8d-'\J	8dddd-\J	.
*	*X8va	*
=69	=69	=69
8D-'/L	8ffL 8dd-\	<
8DD-'/J	24aa-\L	.
.	24bb-\	.
.	24aa-\JJ	.
8D-'\L	8ffL 8dd-\	.
8d-'\J	24a-\L	.
.	24b-\	.
.	24a-\JJ	.
=70	=70	=70
8D-'/L	8ffL 8dd-\	.
8DD-'/J	24aan\L	.
.	24bb-\	.
.	24aa\JJ	.
!LO:TX:t=P:problem=mixed beam	!	!
8D-'/L	8ffL 8dd-\	.
8d-'\J	24an\L	.
.	24b-\	.
.	24a\JJ	.
!!LO:PB:g=original
=71	=71	=71
!LO:TX:t=P:problem=mixed beam	!	!
8D-'\L	24an\LL	.
.	24b-\	.
.	24a\	.
8DD-'/J	24dd-\	.
!	!LO:TX:b:i:t=cres-cen-do:problem=dynamics with extention lines	!LO:HP:t=cres-cen-do
.	24ee-\	<
.	24dd-\JJ	.
4r	24b-\LL	.
.	24cc-X\	.
.	24b-\	.
.	24dd-\	.
.	24ee-\	.
.	24dd-\JJ	.
=72	=72	=72
8D-'\L	24cc-X\LL	.
.	24ccn\	.
.	24cc-X\	.
8d-'\J	24dd-\	.
.	24ee-\	.
.	24dd-\JJ	.
4r	24ccn\LL	.
.	24dd-\	.
.	24cc\	.
.	24dd-\	.
.	24ee-\	.
.	24dd-\JJ	.
*clefG2	*	*
=73	=73	=73
8cc-XL 8f'/	24ee-\LL	.
.	24dd-\	.
.	24ee-\	.
*clefF4	*	*
8D-'/J	24dd-\	.
.	24ee-\	.
.	24dd-\JJ	.
4r	24ee-\LL	.
.	24dd-\	.
.	24ee-\	.
.	24dd-\	.
.	24ee-\	.
.	24dd-\JJ	[[
=74	=74	=74
!LO:TX:t=P:problem=mixed beam	!	!
8c-XL 8F\	24ee-\LL	.
.	24dd-\	.
.	24ee-\	.
8DD-'/J	24dd-\	.
.	24ee-\	.
.	24dd-\JJ	.
4r	24ee-\LL	.
.	24dd-\	.
.	24ee-\	.
.	24dd-\	.
.	24ee-\	.
.	24dd-\JJ	.
=75||	=75||	=75||
*k[b-e-a-d-g-c-]	*k[b-e-a-d-g-c-]	*
!LO:TX:a:t=P:problem=zapisany tylko bemol ces	!LO:TX:a:t=P:problem=zapisany tylko bemol ces	!
!LO:TX:t=P:problem=mixed beam	!	!
8GG-/L	(24b-\LL	p
.	24cc-\	.
.	24dd-\JJ	.
8b-J 8e-\	24ee-\LL	.
.	24ff\	.
.	24gg-\JJ)	.
!LO:TX:t=P:problem=mixed beam	!LO:TX:b:i:t=mormorando	!
8cc-L 8f\	(24dd-\LL	.
.	24ee-\	.
.	24dd-\JJ)	.
8D-/J	(24a-\LL	.
.	24b-\	.
.	24a-\JJ)	.
=76	=76	=76
!LO:TX:t=P:problem=mixed beam	!LO:TUP:a:problem=klamra łukowa	!
8DD-/L	(24a-\LL	.
.	24b-\	.
.	24a-\JJ)	.
8fJ 8d-\	(24cc-\LL	.
.	24dd-\	.
.	24cc-\JJ)	.
!!LO:LB:g=original
8g-L 8d-\	(24b-\LL	.
.	24cc-\	.
.	24b-\JJ)	.
8B-\J	(24dd-\LL	.
.	24ee-\	.
.	24dd-\JJ)	.
=77	=77	=77
!LO:TX:a:i:t=basso marc.	!	!
!LO:TX:t=P:problem=mixed beam	!	!
16B-LL 16E-\	24gg-\LL	sf
.	24ff\	.
16c-\J	.	.
.	24ee-\JJ	.
8AA-/J	24ff\LL	.
.	24cc-\	.
.	24b-\JJ	.
!LO:TX:t=P:problem=mixed beam	!	!
16B-LL 16E-\	24gg-\LL	sf
.	24ff\	.
16c-\J	.	.
.	24ee-\JJ	.
8AA-/J	24ff\LL	.
.	24cc-\	.
.	24b-\JJ	.
=78	=78	=78
8c-L 8F\	24a-\LL	.
.	24b-\	.
.	24a-\JJ	.
8D-\J	24dd-\LL	.
.	24ee-\	.
.	24dd-\JJ	.
!LO:TX:t=P:problem=mixed beam	!	!
8B-L 8G-\	24b-\LL	.
.	24cc-\	.
.	24b-\JJ	.
8GG-/J	24g-/LL	.
.	24a-/	.
.	24g-/JJ	.
=79	=79	=79
!LO:TX:t=P:problem=mixed beam	!	!
8GG-/L	24b-\LL	p
.	24cc-\	.
.	24dd-\JJ	.
8b-J 8e-\	24ee-\LL	.
.	24ff\	.
.	24gg-\JJ	.
8cc-L 8f\	24dd-\LL	.
.	24ee-\	.
.	24dd-\JJ	.
8D-\J	24a-\LL	.
.	24b-\	.
.	24a-\JJ	.
=80	=80	=80
!LO:TX:t=P:problem=mixed beam	!	!
8DD-/L	24a-\LL	.
.	24b-\	.
.	24a-\JJ	.
8fJ 8d-\	24cc-\LL	.
.	24dd-\	.
.	24cc-\JJ	.
8g-L 8d-\	24b-\LL	.
.	24cc-\	.
.	24b-\JJ	.
8B-\J	24dd-\LL	.
.	24ee-\	.
.	24dd-\JJ	.
=81	=81	=81
!LO:TX:t=P:problem=mixed beam	!	!
!LO:TX:t=P:problem=kwadratowy łuk	!	!
(16B-LL 16E-\	24gg-\LL	sf
.	24ff\	.
16c-\J	.	.
.	24ee-\	.
8AA-/J)	24ff\	.
.	24cc-\	.
.	24b-\JJ	.
!LO:TX:t=P:problem=kwadratowy łuk	!	!
!LO:TX:t=P:problem=mixed beam	!	!
(16B-LL 16E-\	24gg-\LL	sf
.	24ff\	.
16c-\J	.	.
.	24ee-\	.
8AA-/J)	24ff\	.
.	24cc-\	.
.	24b-\JJ	.
!!LO:LB:g=original
=82	=82	=82
8c-L 8F\	24a-/LL	.
.	24b-/	.
.	24a-/JJ	.
8D-\J	24dd-/LL	.
.	24ee-/	.
.	24dd-/JJ	.
!LO:TX:t=P:problem=mixed beam	!	!
8B-L 8G-\	8g-/	.
8GG-/J	8r	.
=83	=83	=83
8BB-'\L	24ddn\LL	p
.	24ee-\	.
.	24ff\JJ	.
*clefG2	*	*
8ddnJ 8gn'\	24ggn\LL	.
.	24aan\	.
.	24bb-\JJ	.
!LO:TX:t=P:problem=mixed beam	!	!
8ee-L 8an'\	24ff\LL	.
.	24gg\	.
.	24ff\JJ	.
8F'/J	24ccn\LL	.
.	24dd\	.
.	24cc\JJ	.
*clefF4	*	*
=84	=84	=84
8FF'\L	24ccn\LL	.
.	24ddn\	.
.	24cc\JJ	.
8anJ 8f|\	24ee-\LL	.
.	24ff\	.
.	24ee-\JJ	.
8b-L 8f'\	24dd\LL	.
.	24ee-\	.
.	24dd\JJ	.
8dn\J	24ff\LL	.
.	24ggn\	.
.	24ff\JJ	.
=85	=85	=85
!LO:TX:t=P:problem=kwadratowy łuk	!	!
!LO:TX:t=P:problem=mixed beam	!	!
(16dnLL 16Gn\	24bb-\LL	sf
.	24aan\	.
16e-\J	.	.
.	24ggn\JJ	.
8Cn/J)	24aa\LL	.
.	24ee-\	.
.	24ddn\JJ	.
!LO:TX:t=P:problem=kwadratowy łuk	!	!
!LO:TX:t=P:problem=mixed beam	!	!
(16dLL 16G\	24bb-\LL	sf
.	24aa\	.
16e-\J	.	.
.	24gg\JJ	.
8C/J)	24aa\LL	.
.	24ee-\	.
.	24dd\JJ	.
=86	=86	=86
8e-L 8An\	24ccn\LL	.
.	24ddn\	.
.	24cc\JJ	.
8F\J	24ff\LL	.
.	24ggn\	.
.	24ff\JJ	.
!LO:TX:t=P:problem=mixed beam	!	!
8dnL 8B-\	24dd\LL	.
.	24ee-\	.
.	24dd\JJ	.
8BB-/J	24b-\LL	.
.	24cc\	.
.	24b-\JJ	.
!!LO:LB:g=original
=87||	=87||	=87||
*k[bnenandngncnf#c#]	*k[bnenandngncnf#c#]	*
8D\L	24ff#\LL	<
.	24gg\	.
.	24aa\JJ	.
*clefG2	*	*
8ff#J 8b\	24bb\LL	.
.	24ccc#\	.
.	24ddd\JJ	.
!LO:TX:t=P:problem=mixed beam	!	!
8ggL 8cc#\	24aa\LL	.
.	24bb\	.
.	24aa\JJ	.
8A/J	24ee\LL	.
.	24ff#\	.
.	24ee\JJ	.
*clefF4	*	*
=88	=88	=88
8AA/L	24ee\LL	.
.	24ff#\	.
.	24ee\	.
*clefG2	*	*
8cc#J 8a/	24gg\	.
.	24aa\	.
.	24gg\JJ	.
8ddL 8a/	24ff#\LL	.
.	24gg\	.
.	24ff#\	.
8f#/J	24aa\	.
.	24bb\	.
.	24aa\JJ	.
*clefF4	*	*
=89	=89	=89
8D\L	24ff#\LL	.
.	24gg\	.
.	24aa\JJ	.
*clefG2	*	*
8ff#J 8b\	24bb\LL	.
.	24ccc#\	.
.	24ddd\JJ	.
!LO:TX:t=P:problem=mixed beam	!	!
8ggL 8cc#\	24aa\LL	.
.	24bb\	.
.	24aa\JJ	.
8A/J	24ee\LL	.
.	24ff#\	.
.	24ee\JJ	.
*clefF4	*	*
=90	=90	=90
8AA\L	24ee\LL	.
.	24ff#\	.
.	24ee\JJ	.
*clefG2	*	*
8cc#J 8a\	24gg\LL	.
.	24aa\	.
.	24gg\JJ	.
8ddL 8a\	24ff#\LL	.
.	24gg\	.
.	24ff#\JJ	.
8f#\J	24aa\LL	.
.	24bb\	.
.	24aa\JJ	[[
*clefF4	*	*
=91	=91	=91
!	!	!LO:DY:t=f.
16f#LL 16B\	24ddd\LL	f
.	24ccc#\	.
16g\J	.	.
.	24bb\JJ	.
!LO:TX:aa:i:t=marcato	!	!
8E\J	24ccc#\LL	.
.	24gg\	.
.	24ff#\JJ	.
!!LO:LB:g=original
!LO:TX:t=P:problem=kwadratowy łuk	!	!
(16f#LL 16B\	24ddd\LL	.
.	24ccc#\	.
16g\J	.	.
.	24bb\JJ	.
8E\J)	24ccc#\LL	.
.	24gg\	.
.	24ff#\JJ	.
=92	=92	=92
!	!	!LO:DY:b:t=sempre f.
8gL 8c#\	24ee\LL	f
.	24ff#\	.
.	24ee\JJ	.
8A\J	24aa\LL	.
.	24bb\	.
.	24aa\JJ	.
8f#L 8d\	24ff#\LL	.
.	24gg\	.
.	24ff#\JJ	.
8D\J	24dd\LL	.
.	24ee\	.
.	24dd\JJ	.
=93	=93	=93
!LO:TX:t=P:problem=mixed beam	!	!
!LO:TX:t=P:problem=kwadratowy łuk	!	!
(16c#LL 16F#\	24aa\LL	.
.	24gg#X\	.
16d\J	.	.
.	24ff#\JJ	.
8BB/J)	24gg#\LL	.
.	24dd\	.
.	24cc#\JJ	.
!LO:TX:t=P:problem=kwadratowy łuk	!	!
(16c#LL 16F#\	24aa\LL	.
.	24gg#X\	.
16d\J	.	.
.	24ff#\JJ	.
8BB'\J)	24gg#\LL	.
.	24dd\	.
.	24cc#\JJ	.
=94	=94	=94
8dL 8G#X\	24b\LL	.
.	24cc#\	.
.	24b\JJ	.
8E\J	24ee\LL	.
.	24ff#\	.
.	24ee\JJ	.
!LO:TX:t=P:problem=mixed beam	!	!
8c#L 8A\	24cc#\LL	.
.	24dd\	.
.	24cc#\JJ	.
8AA/J	24a\LL	.
.	24b\	.
.	24a\JJ	.
=95	=95	=95
!LO:TX:t=P:problem=mixed beam	!	!LO:HP:t=dim
16c#LL 16F#\	24aa\LL	>
.	24gg#X\	.
16d\J	.	.
.	24ff#\JJ	.
8D/J	24gg#\LL	.
.	24dd\	.
.	24cc#\JJ	.
!LO:TX:t=P:problem=mixed beam	!	!
16c#LL 16E#X\	24cc#\LL	.
.	24dd\	.
16d\J	.	.
.	24cc#\JJ	.
8C#/J	24cc#\LL	.
.	24dd\	.
.	24cc#\JJ	.
!!LO:LB:g=original
=96	=96	=96
!LO:TX:t=P:problem=mixed beam	!	!
16c#LL 16F#\	24aa\LL	>
.	24gg#X\	.
16d\J	.	.
.	24ff#\JJ	.
8BB/J	24gg#\LL	.
.	24dd\	.
.	24cc#\JJ	.
!LO:TX:t=P:problem=mixed beam	!	!
16c#LL 16E#X\	24cc#\LL	.
.	24dd\	.
16d\J	.	.
.	24cc#\JJ	.
8C#/J	24cc#\LL	.
.	24dd\	]
.	24cc#\JJ	.
=97	=97	=97
16c#LL 16F#\	24aa\LL	>
.	24gg#X\	.
16d\J	.	.
.	24ff#\JJ	.
8BB\J	24gg#\LL	.
.	24dd\	.
.	24cc#\JJ	.
16c#LL 16F#\	24aa\LL	.
.	24gg#\	.
16d\J	.	.
.	24ff#\JJ	.
8BB\J	24gg#\LL	.
.	24dd\	.
.	24cc#\JJ	.
=98	=98	=98
!LO:TX:t=P:problem=mixed beam	!	!
16c#LL 16E#X\	24cc#\LL	.
.	24dd\	.
16d\J	.	.
.	24cc#\JJ	.
8C#/J	24cc#\LL	.
.	24dd\	.
.	24cc#\JJ	.
!LO:TX:t=P:problem=mixed beam	!	!
16c#LL 16E#\	24cc#\LL	.
.	24dd#X\	.
16d#X\J	.	.
.	24cc#\JJ	.
8C#/J	24cc#\LL	.
.	24dd#\	.
.	24cc#\JJ	]]
=99||	=99||	=99||
*k[fncnb-e-a-d-g-c-]	*k[fncnb-e-a-d-g-c-]	*
!LO:TX:t=P:problem=mixed beam	!	!
8GG-/L	24b-\LL	p
.	24cc-\	.
.	24dd-\JJ	.
8b-J 8e-\	24ee-\LL	.
.	24ff\	.
.	24gg-\JJ	.
8cc-L 8f\	24dd-\LL	.
.	24ee-\	.
.	24dd-\JJ	.
8D-\J	24a-\LL	.
.	24b-\	.
.	24a-\JJ	.
=100	=100	=100
!LO:TX:t=P:problem=mixed beam	!	!
8DD-/L	24a-\LL	.
.	24b-\	.
.	24a-\JJ	.
8fJ 8d-\	24cc-\LL	.
.	24dd-\	.
.	24cc-\JJ	.
8g-L 8d-\	24b-\LL	.
.	24cc-\	.
.	24b-\JJ	.
8B-\J	24dd-\LL	.
.	24ee-\	.
.	24dd-\JJ	.
!!LO:PB:g=original
=101	=101	=101
!LO:TX:a:i:t=marc.	!	!
!LO:TX:t=P:problem=mixed beam	!	!
16B-LL 16E-\	24gg-\LL	sf
.	24ff\	.
16c-\J	.	.
.	24ee-\JJ	.
8AA-/J	24ff\LL	.
.	24cc-\	.
.	24b-\JJ	.
!LO:TX:t=P:problem=mixed beam	!	!
16B-LL 16E-\	24gg-\LL	sf
.	24ff\	.
16c-\J	.	.
.	24ee-\JJ	.
8AA-/J	24ff\LL	.
.	24cc-\	.
.	24b-\JJ	.
=102	=102	=102
8c-L 8F\	24a-\LL	.
.	24b-\	.
.	24a-\JJ	.
8D-\J	24dd-\LL	.
.	24ee-\	.
.	24dd-\JJ	.
!LO:TX:t=P:problem=mixed beam	!	!
8B-L 8G-\	24b-\LL	.
.	24cc-\	.
.	24b-\JJ	.
8GG-/J	24g-\LL	.
.	24a-\	.
.	24g-\JJ	.
=103	=103	=103
!LO:TX:t=P:problem=mixed beam	!	!
8GG-/L	24b-\LL	.
.	24cc-\	.
.	24dd-\JJ	.
8b-J 8e-\	24ee-\LL	.
.	24ff\	.
.	24gg-\JJ	.
8cc-L 8f\	24dd-\LL	.
.	24ee-\	.
.	24dd-\JJ	.
8D-\J	24a-\LL	.
.	24b-\	.
.	24a-\JJ	.
=104	=104	=104
!LO:TX:t=P:problem=mixed beam	!	!
8DD-/L	24a-\LL	.
.	24b-\	.
.	24a-\JJ	.
8fJ 8d-\	24dd-\LL	.
.	24ee-\	.
.	24dd-\JJ	.
8g-L 8d-\	24b-\LL	.
.	24cc-\	.
.	24b-\JJ	.
8B-\J	24dd-\LL	.
.	24ee-\	.
.	24dd-\JJ	.
=105	=105	=105
!LO:TX:t=P:problem=kwadratowy łuk	!	!
(16B-LL 16E-\	24gg-\LL	.
.	24ff\	.
16c-\J	.	.
.	24ee-\JJ	.
8AA-/J)	24ff\LL	.
.	24cc-\	.
.	24b-\JJ	.
!LO:TX:t=P:problem=kwadratowy łuk	!	!
(16B-LL 16E-\	24gg-\LL	.
.	24ff\	.
16c-\J	.	.
.	24ee-\JJ	.
8AA-/J)	24ff\LL	.
.	24cc-\	.
.	24b-\JJ	.
!!LO:LB:g=original
=106	=106	=106
8c-L 8F\	24a-\LL	.
.	24b-\	.
.	24a-\JJ	.
8D-\J	24dd-\LL	.
.	24ee-\	.
.	24dd-\JJ	.
!LO:TX:t=P:problem=mixed beam	!	!
8B-L 8G-\	8g-/	.
8GG-/J	8r	.
=107||	=107||	=107||
*k[b-e-a-d-g-cn]	*k[b-e-a-d-g-cn]	*
!	!LO:TX:b:i:t=stacato	!
8fL 8B-\	8dd-L 8b-\	.
8fJ 8F\	8aa-J 8a-\	.
8cL 8A-\	8ee-L 8a-\	.
8d-J 8D-\	8ffJ 8a-\	.
=108	=108	=108
8G-L 8E-\	8b-L 8g-\	.
8e-J 8E-\	8ccJ 8g-\	.
(8cL 8AA-^^\	(8ee-L 8g-^^\	.
16A-Jk 16D-\)	16dd-Jk 16f\)	.
16r	16r	.
=109	=109	=109
8A-L 8D-\	8dd-L 8f\	.
8d-J 8BB-\	8ffJ 8a-\	.
8e-L 8C\	8ccL 8a-\	.
8d-J 8BB-\	8dd-J 8f\	.
=110	=110	=110
(8d-L 8E-^^\	(8ccL 8gn^^\	.
16cJk 16AA-\)	16a-Jk 16e-\)	.
16r	16r	.
8EE-'^^</L	4ryy	.
8AAA-'^^</J	.	.
=111	=111	=111
8cL 8AA-\	8a-L 8e-\	.
8d-J 8B--^^\	8ee-J 8gn^^\	.
8cL 8AA-\	8a-L 8e-\	.
8d-J 8B--^^\	8ee-J 8g^^\	.
=112	=112	=112
8d-L 8B--\	24ee-LL 24gn\	.
.	24ff-X\	.
.	24ee-\JJ	.
8d-J 8B--\	24ee-LL 24g\	.
.	24ff-\	.
.	24ee-\JJ	.
8c 8A-\	8aa-|\L	.
8r	8b-\J	.
!!LO:LB:g=original
=113	=113	=113
*clefG2	*	*
8ccL 8A-/	8aa-L 8ee-\	.
8dd-J 8b--^^/	8eee-J 8ggn^^\	.
8ccL 8A-/	8aa-L 8ee-\	.
8dd-J 8b--^^/	8eee-J 8gg^^\	.
=114	=114	=114
8dd-L 8b--/	24eee-LL 24ggn\	.
.	24fff-X\	.
.	24eee-\JJ	.
8dd-J 8b--/	24eee-LL 24gg\	.
.	24fff-\	.
.	24eee-\JJ	.
8cc 8a-/	8aaa-'\L	.
8r	8aa-'\J	.
=115	=115	=115
!	!LO:TX:b:i:t=stacato	!
8ffL 8b-\	8ddd-L 8bb-\	.
8ffJ 8f\	8aaa-J 8aa-\	.
8ccL 8a-\	8eee-L 8aa-\	.
!	!LO:TX:t=P:problem=skreślony jeden takt	!
8dd-J 8d-\	8fffJ 8ff\	.
*clefF4	*	*
=116	=116	=116
8fL 8B-\	8dd-L 8b-\	.
8fJ 8F\	8aa-J 8a-\	.
8cL 8A-\	8ee-L 8a-\	.
8d-J 8D-\	8ffJ 8f\	.
=117	=117	=117
!LO:TX:t=P:problem=zapis poprawiony ołówkiem na 8A- 8F	!	!
8e-L 8C\|	8ccL 8a-|\	.
8d-J 8BB-'\	8dd-J 8f|\	.
(8d-L 8E-^^\	(8ccL 8gn^^\	.
16cJk 16AA-\)	16a-Jk 16e-\)	.
16r	16r	.
!!LO:LB:g=original
=118	=118	=118
8a-L 8F'\	8ffL 8dd-'\	.
8g-J 8E-'\	8gg-J 8b-'\	.
(8g-L 8A-^^\	(8ffL 8cc^^\	.
16fJk 16D-\)	16dd-Jk 16a-\)	.
16r	16r	.
=119	=119	=119
8D-\L	16ffLL 16dd-\	p
.	16aa- 16cc\	.
*tuplet	*	*
!LO:TUP:a:problem=klamra łukowa	!	!
24A-\L	16ff 16dd-\	.
24d-\	.	.
.	16aa-JJ 16cc\	.
24en\JJ	.	.
8f\L	16ffLL 16dd-\	.
.	16aa- 16cc\	.
8A-\J	16ff 16bn\	.
.	16aa-JJ 16cc\	.
=120	=120	=120
8D-\L	8ffL 8dd-'\	.
!LO:TX:t=P:problem=8G- poprawione ołówkiem na 8E-	!	!
8g-J 8G-\	8gg-J 8b-\	.
(8g-L 8A-^^\	(8ffL 8cc^^\	.
16fJk 16D-\)	16dd-Jk 16a-\)	.
16r	16r	.
=121	=121	=121
8G-\L	16bb-LL 16gg-\	.
.	16ddd- 16ff\	.
!LO:TUP:a:problem=klamra łukowa	!	!
24d-\L	16bb- 16gg-\	.
24g-\	.	.
.	16ddd-JJ 16ff\	.
24an\JJ	.	.
8b-\L	16bb-LL 16gg-\	<
.	16ddd- 16ff\	.
8d-\J	16bb- 16een\	.
.	16ddd-JJ 16ff\	.
=122	=122	=122
8G-'\L	8bb-L 8gg-'\	.
*clefG2	*	*
8cc-XJ 8c-X'\	8ccc-XJ 8ee-'\	.
(8cc-L 8d-^^/	(8bb-L 8ff^^\	.
16b-Jk 16G-/)	16gg-Jk 16dd-\)	.
16r	16r	.
*clefF4	*	*
=123	=123	=123
8D-\L	16ddd-LL 16bb-\	f
.	16fff 16aan\	.
*clefG2	*	*
!LO:TUP:a:problem=klamra łukowa	!LO:TX:a:t=des	!
24f\L	16ddd- 16gg#\	.
24b-\	.	.
.	16fffJJ 16aa\	.
24cc\JJ	.	.
8dd-\L	(8ddd-L 8bb-^^\	.
16b-\Jk	16bb-Jk 16ff\)	.
16r	16r	.
*clefF4	*	*
!!LO:LB:g=original
=124	=124	=124
8BB-\L	16ddd-LL 16bb-\	.
.	16fff 16aan\	.
*Xtuplet	*	*
*clefG2	*	*
24f\L	16ddd- 16ggn\	.
24b-\	.	.
.	16fffJJ 16aa\	.
24cc\JJ	.	.
8dd-\L	(8ddd-L 8bb-^^\	.
16b-\Jk	16aaJk 16ff\)	.
16r	16r	.
=125	=125	=125
(8dd-L 8B-^^</	(8ddd-L 8bb-^^\	ff
16b-/Jk)	16bb-Jk 16ff\)	.
16r	16r	.
!LO:TX:b:t=P:problem=^ do góry nogami	!	!
(8dd-L 8B-^^</	(8ddd-L 8bb-^^\	.
16b-/Jk)	16bb-Jk 16ff\)	.
16r	16r	.
=126	=126	=126
(8g-L 8A-^^</	(8aa-L 8cc^^\	.
16c/Jk)	16ee-Jk 16a-\)	>
16r	16r	.
(8g-L 8A-^^</	(8aa-L 8cc^^\	.
16c/Jk)	16eenJk 16a-\)	]
16r	16r	.
*clefF4	*	*
=127	=127	=127
8D-\L	16ffLL 16dd-\	pp
.	16aa- 16cc\	.
24A-\L	16ff 16dd-\	.
24d-\	.	.
.	16aa-JJ 16cc\	.
24en\JJ	.	.
8f'\L	16ffLL 16dd-\	.
.	16aa- 16cc\	.
8A-'\J	16ff 16bn\	.
.	16aa-JJ 16cc\	.
=128	=128	=128
8D-\L	16ffLL 16dd-\	.
.	16aa- 16cc\	.
24A-\L	16ff 16dd-\	.
24d-\	.	.
.	16aa-JJ 16cc\	.
24en\JJ	.	.
8f'\L	16ffLL 16dd-\	.
.	16aa- 16cc\	.
8A-'\J	16ff 16bn\	.
.	16aa-JJ 16cc\	.
=129	=129	=129
8D-\L	8ffL 8dd-\	.
*clefG2	*	*
!	!LO:TX:b:i:t=scherzando	!
8ff\J	24aa-\L	.
.	24bb-\	.
.	24aa-\JJ	.
!LO:TX:t=P:problem=mixed beam	!	!
8een\L	8ggn\L	.
8B-/J	8ddd-\J	.
!!LO:LB:g=original
=130	=130	=130
*clefG2	*	*
!LO:TX:t=P:problem=mixed beam	!	!
8ee-\L	8cccL 8gg-X\	.
*	*8va	*
8A-/J	8aaa-\J	.
*	*X8va	*
8dd-\L	8ddd-L 8ff\	.
*clefF4	*	*
*	*8va	*
8D-\J	8dddd-\J	.
*	*X8va	*
=131	=131	=131
8FF\L	16aa-LL 16ff\	.
.	16ccc 16een\	.
24c\L	16aa- 16ff\	.
24f\	.	.
.	16cccJJ 16ee\	.
24g-\JJ	.	.
8a-\L	16aa-LL 16ff\	.
.	16ccc 16ee\	.
8c\J	16aa- 16dd#X\	.
.	16cccJJ 16ee\	.
=132	=132	=132
8F\L	16aa-LL 16ff\	.
.	16ccc 16ee-\	.
24c\L	16aa- 16ff\	.
24f\	.	.
.	16cccJJ 16ee-\	.
24g-\JJ	.	.
8a-\L	16aa-LL 16ff\	.
.	16ccc 16ee-\	.
8c\J	16aa- 16dd#X\	.
.	16cccJJ 16ee-\	.
=133	=133	=133
8FF\L	8aa-L 8ff\	<
*clefG2	*	*
8aa-\J	24ccc\L	.
.	24ddd-\	.
.	24ccc\JJ	.
!LO:TX:t=P:problem=mixed beam	!	!
8ggn\L	8bbn\L	.
8d-/J	8fff\J	.
=134	=134	=134
!LO:TX:t=P:problem=mixed beam	!	!
8ggn\L	8eeenL 8bb-X\	.
*	*8va	*
8c/J	8cccc\J	.
*	*X8va	*
!LO:TX:t=P:problem=mixed beam	!	!
8ff\L	8fffL 8aa-\	.
*	*8va	*
8F/J	8ffff\J	.
*	*X8va	*
*clefF4	*	*
=135	=135	=135
!LO:TX:t=P:problem=mixed beam	!	!
8AAA-/L	16ccLL 16a-\	.
.	16ee- 16gn\	.
24E-\L	16cc 16a-\	.
24A-\	.	.
.	16ee-JJ 16g\	.
24Bn\JJ	.	.
8c\L	16ccLL 16a-\	.
.	16ee- 16g\	.
8E-\J	16cc 16f#X\	[
.	16ee-JJ 16g\	.
!!LO:PB:g=original
=136	=136	=136
8AA-\L	8ccL 8a-\	.
8AAA-\J	24ee-\L	.
.	24ff\	.
.	24ee-\JJ	.
8AA-\L	8aa-L 8cc\	.
8A-\J	8aaa-\J	<
=137	=137	=137
8AA-\L	16ccLL 16a-\	.
.	16ee- 16gn\	.
24E-\L	16cc 16a-\	.
24A-\	.	.
.	16ee-JJ 16g\	.
24Bn\JJ	.	.
8c\L	16ccLL 16a-\	.
.	16ee- 16g\	.
8E-\J	16cc 16f#X\	.
.	16ee-JJ 16g\	.
=138	=138	=138
8AA-/L	8ccL 8a-\	.
8AAA-/J	24ee-\L	.
.	24ff\	.
.	24ee-\JJ	.
8AA-\L	8aa-L 8cc\	.
8A-\J	8aaa-\J	.
=139	=139	=139
!	!	!LO:HP:t=sempre cresc
8AA-/L	8ccL 8a-\	<
8AAA-/J	24ee-\L	.
.	24ff\	.
.	24ee-\JJ	.
8AA-\L	8ccL 8a-\	.
8A-\J	24e-\L	.
.	24f\	.
.	24e-\JJ	.
=140	=140	=140
8AA-/L	8ccL 8a-\	.
8AAA-/J	24een\L	.
.	24ff\	.
.	24ee\JJ	.
8AA-\L	8ccL 8a-\	.
8A-\J	24en\L	.
.	24f\	.
.	24e\JJ	.
=141	=141	=141
8AA-/L	24en\LL	.
.	24f\	.
.	24e\	.
8AAA-/J	24a-\	.
.	24b-\	.
.	24a-\JJ	.
4r	24f\LL	.
.	24g-\	.
.	24f\	.
.	24a-\	.
.	24b-\	.
.	24a-\JJ	.
=142	=142	=142
8AA-\L	24g-\LL	.
.	24a-\	.
.	24g-\	.
8A-\J	24a-\	.
.	24b-\	.
.	24a-\JJ	.
!!LO:LB:g=original
4r	24gn\LL	.
.	24a-\	.
.	24g\	.
.	24a-\	.
.	24b-\	.
.	24a-\JJ	.
=143	=143	=143
!LO:TX:t=P:problem=mixed beam	!	!
8g-L 8c\	24b-\LL	.
.	24a-\	<
.	24b-\	.
8AA-/J	24a-\	.
.	24b-\	.
.	24a-\JJ	.
4r	24b-\LL	.
.	24a-\	.
.	24b-\	.
.	24a-\	.
.	24b-\	.
.	24a-\JJ	.
=144	=144	=144
8G-L 8C/	24b-\LL	.
.	24a-\	.
.	24b-\	.
8AAA-/J	24a-\	.
.	24b-\	.
.	24a-\JJ	.
4r	24b-\LL	.
.	24a-\	.
.	24b-\	.
.	24a-\	.
.	24b-\	.
.	24a-\JJ	[[
=145	=145	=145
!LO:TX:t=P:problem=mixed beam	!	!
8DD-/L	24f/LL	pp
.	24g-/	.
.	24a-/JJ	.
!	!LO:TX:b:i:t=mormorando	!
8fJ 8B-\	24b-/LL	.
.	24cc/	.
.	24dd-/JJ	.
!LO:TX:t=P:problem=mixed beam	!	!
8g-L 8c\	24a-/LL	.
.	24b-/	.
.	24a-/JJ	.
8AA-/J	24e-/LL	.
.	24f/	.
.	24e-/JJ	.
=146	=146	=146
!LO:TX:t=P:problem=mixed beam	!	!
8AAA-/L	24e-/LL	.
.	24f/	.
.	24e-/JJ	.
8cJ 8A-\	24g-/LL	.
.	24a-/	.
.	24g-/JJ	.
8d-L 8A-\	24f/LL	.
.	24g-/	.
.	24f/JJ	.
8F\J	24a-/LL	.
.	24b-/	.
.	24a-/JJ	.
=147	=147	=147
!LO:TX:t=P:problem=mixed beam	!	!
!LO:TX:t=P:problem=kwadratowy łuk	!	!
(16FLL 16BB-\	24dd-\LL	.
.	24cc\	.
16G-\J	.	.
.	24b-\JJ	.
8EE-/J)	24cc\LL	.
.	24g-\	.
.	24f\JJ	.
!LO:TX:t=P:problem=mixed beam	!	!
!LO:TX:t=P:problem=kwadratowy łuk	!	!
16FLL 16BB-\	24dd-\LL	.
.	24cc\	.
16G-\J	.	.
.	24b-\JJ	.
8EE-/J	24cc\LL	.
.	24g-\	.
.	24f\JJ	.
!!LO:LB:g=original
=148	=148	=148
8G-L 8C\	24e-/LL	.
.	24f/	.
.	24e-/JJ	.
8AA-\J	24a-/LL	.
.	24b-/	.
.	24a-/JJ	.
!LO:TX:t=P:problem=mixed beam	!	!
8FL 8D-\	24f/LL	.
.	24g-/	.
.	24f/JJ	.
8DD-/J	24e-/LL	.
.	24f/	.
.	24e-/JJ	.
=149	=149	=149
!LO:TX:t=P:problem=mixed beam	!	!
8DD-/L	24f/LL	.
.	24g-/	.
.	24a-/JJ	.
8fJ 8B-\	24b-/LL	.
.	24cc/	.
.	24dd-/JJ	.
8g-L 8c\	24a-/LL	.
.	24b-/	.
.	24a-/JJ	.
!LO:TX:t=P:problem=skreślone 8A-	!	!
8AA-\J	24e-/LL	.
.	24f/	.
.	24e-/JJ	.
=150	=150	=150
!LO:TX:t=P:problem=mixed beam	!	!
8AAA-/L	24e-/LL	.
.	24f/	.
.	24e-/JJ	.
8cJ 8A-\	24g-/LL	.
.	24a-/	.
.	24g-/JJ	.
8d-L 8A-\	24f/LL	.
.	24g-/	.
.	24f/JJ	.
8F\J	24a-/LL	.
.	24b-/	.
.	24a-/JJ	.
=151	=151	=151
!LO:TX:t=P:problem=kwadratowy łuk	!	!
(16FLL 16BB-/	24dd-/LL	.
.	24cc/	.
16G-/J	.	.
.	24b-/JJ	.
8EE-/J)	24cc/LL	.
.	24g-/	.
.	24f/JJ	.
!LO:TX:t=P:problem=mixed beam	!	!
!LO:TX:t=P:problem=kwadratowy łuk	!	!
(16FLL 16BB-\	24dd-/LL	.
.	24cc/	.
16G-\J	.	.
.	24b-/JJ	.
8EE-/J)	24cc/LL	.
.	24g-/	.
.	24f/JJ	.
=152	=152	=152
8G-L 8C\	24e-/LL	.
.	24f/	.
.	24e-/JJ	.
8AA-\J	24a-/LL	.
.	24b-/	.
.	24a-/JJ	.
4r	24en/LL	.
.	24f/	.
.	24e/JJ	.
.	24a-/LL	.
.	24b-/	.
.	24a-/JJ	.
!!LO:LB:g=original
=153	=153	=153
!LO:TX:t=P:problem=mixed beam	!	!
8DD-L 8DDD-/	16aa-LL 16a-\	ff
.	16bb- 16b-\	.
!	!LO:TX:b:i:t=con bravura	!
8fJ 8A- 8F\	16ccc 16cc\	.
.	16ddd-JJ 16dd-\	.
!LO:TX:t=P:problem=mixed beam	!	!
8e-L 8A- 8E-\	8aa-L 8a-\	.
8AA-J 8AAA-/	8ee-J 8e-\	.
=154	=154	=154
!LO:TX:t=P:problem=mixed beam	!	!
8cL 8A- 8C\	8ee-L 8e-\	.
8AA-J 8AAA-/	24gg-L 24g-\	.
.	24aa-\	.
.	24gg-\JJ	.
!LO:TX:t=P:problem=mixed beam	!	!
8d-L 8A- 8D-\	8ffL 8f\	.
8DD-J 8DDD-/	16aa-L 16a-\	.
.	16aanJJ 16an\	.
=155	=155	=155
!LO:TX:t=P:problem=mixed beam	!	!
8d-L 8B- 8D-\	16bb-LL 16b-\	.
.	16aan 16an\	.
8BB-J 8BBB-/	16bb- 16b-\	.
.	16cccJJ 16cc\	.
!LO:TX:t=P:problem=mixed beam	!	!
8GG-L 8GGG-/	16ddd-LL 16dd-\	.
.	16bb- 16b-\	.
8e-J 8B- 8E-\	16gg- 16g-\	.
.	16ffJJ 16f\	.
=156	=156	=156
!LO:TX:t=P:problem=mixed beam	!	!
8AA-L 8AAA-/	8ee-L 8e-\	.
8cJ 8G- 8C\	24aa-L 24a-\	.
.	24bb-\	.
.	24aa-\JJ	.
!LO:TX:t=P:problem=mixed beam	!	!
8DD-L 8DDD-/	8ffL 8f\	.
8FJ 8D-\	8dd-J 8d-\	.
=157	=157	=157
!LO:TX:t=P:problem=mixed beam	!	!
8DD-L 8DDD-/	16aa-LL 16a-\	.
.	16bb- 16b-\	.
8d-J 8A- 8F\	16ccc 16cc\	.
.	16ddd-JJ 16dd-\	.
!LO:TX:t=P:problem=mixed beam	!	!
8e-L 8A- 8E-\	8aa-L 8a-\	.
8AA-J 8AAA-/	8ee-J 8e-\	.
=158	=158	=158
!LO:TX:t=P:problem=mixed beam	!	!
8cL 8A- 8C\	8ffL 8f\	.
8AA-J 8AAA-/	24gg-L 24g-\	.
.	24aa-\	.
.	24gg-\JJ	.
!LO:TX:t=P:problem=mixed beam	!	!
8d-L 8A- 8D-\	8ffL 8f\	.
8DD-J 8DDD-/	16aa-L 16a-\	.
.	16aanJJ 16an\	.
!!LO:LB:g=original
=159	=159	=159
!LO:TX:t=P:problem=mixed beam	!	!
8d-L 8B- 8D-\	16bb-LL 16b-\	.
.	16aan 16an\	.
8BB-J 8BBB-/	16bb- 16b-\	.
.	16cccJJ 16cc\	.
!LO:TX:t=P:problem=mixed beam	!	!
8GG-L 8GGG-/	16ddd-LL 16dd-\	.
.	16bb- 16b-\	.
8B-J 8E- 8BB-\	16gg- 16g-\	.
.	16ffJJ 16f\	.
=160	=160	=160
!LO:TX:t=P:problem=mixed beam	!	!
8AA-L 8AAA-/	8ee-L 8e-\	.
8cJ 8G- 8C\	24aa-L 24a-\	.
.	24bb-\	.
.	24aa-\JJ	.
!LO:TX:t=P:problem=mixed beam	!	!
8DD-L 8DDD-/	8ffL 8f\	.
8d-J 8F 8D-\	8ddd-J 8dd-\	.
=161	=161	=161
!LO:TX:t=P:problem=mixed beam	!	!
8d-L 8B- 8D-/	16bb-LL 16b-\	.
.	16aan 16an\	.
8BB-J 8BBB-/	16bb- 16b-\	.
.	16cccJJ 16cc\	.
!LO:TX:t=P:problem=mixed beam	!	!
8GG-L 8GGG-/	16ddd-LL 16dd-\	.
.	16bb- 16b-\	.
8B-J 8E- 8BB-/	16gg- 16g-\	.
.	16ffJJ 16f\	.
=162	=162	=162
!LO:TX:t=P:problem=mixed beam	!	!
8AA-L 8AAA-/	8ee-L 8e-\	.
8cJ 8G- 8C\	24aa-L 24a-\	.
.	24bb-\	.
.	24aa-\JJ	.
!LO:TX:t=P:problem=mixed beam	!	!
8DD-L 8DDD-/	8ffL 8f\	.
8d-J 8F 8D-\	8ddd-J 8dd-\	.
=163	=163	=163
!LO:TX:t=P:problem=mixed beam	!	!LO:DY:t=fff.
8DD-L 8DDD-/	8fffL 8ff\	fff
*	*8va	*
8b-J 8B- 8G-\	8dddd-J 8ddd-\	.
*	*X8va	*
8r	8ffL 8f\	.
8a- 8d- 8A-\	8ddd-J 8dd-\	.
=164	=164	=164
8r	8fL 8F\	.
8gn 8d- 8Gn\	8dd-J 8d-\	.
8r	8ffL 8f\	.
8a- 8d- 8A-\	8ddd-J 8dd-\	.
!!LO:LB:g=original
=165	=165	=165
8DD-\L	8fffL 8ff\	.
*	*8va	*
8g-J 8d- 8B-\	8dddd-J 8ddd-\	.
*	*X8va	*
8fL 8d- 8A-\	8ffL 8f\	.
8gnJ 8d- 8Gn\	8ddd-J 8dd-\	.
=166	=166	=166
8a- 8d- 8A-\	8fL 8F/	.
8r	8dd-J 8d-/	.
8FFL 8FFF\	8F</L	.
8D-J 8DD-\	8d-</J	.
=167	=167	=167
4DD- 4DDD-\	4D-</	.
4d- 4A- 4F 4D-\	4ff 4a- 4f\	.
=168	=168	=168
4D- 4DD-\	4d-</	.
*clefG2	*	*
*	*8va	*
!	!LO:TX:t=P:problem=prawa ręka z powrotem w prawej	!
4ff 4dd- 4a- 4d-\	4ffff 4dddd- 4aaa- 4fff 4ddd-\	.
*	*X8va	*
*clefF4	*	*
=169	=169	=169
!	!LO:TX:b:i:t=Fine.	!
!LO:TX:a:t=[segno]:problem=znak segno na kresce taktowej	!LO:TX:a:t=[segno]:problem=znak segno na kresce taktowej	!
.	8qqD-</	.
2DD- 2DDD-\	2D-<;/	.
==	==	==
*-	*-	*-
!!!system-decoration: {(s1,s2)}
!!!RDF**kern: > = above
!!!RDF**kern: < = below
!!!RDF**kern: | = vertical stroke
!!!RDF**dynam: p = "p."
!!!RDF**dynam: pp = "pp."
!!!ENC: Marta Lawrence
!!!END: 2021-05-21
!!!ENC: Andrzej Gręziak
!!!END: 2021-05-01
